X:1
T:Title
%%score { ( 1 3 ) | ( 2 4 ) }
L:1/8
M:4/4
K:Bb
V:1 treble nm="Grand Piano"
V:3 treble 
V:2 bass 
V:4 bass 
V:1
 z4 z2[Q:1/4=106] [Fd]2 | [Fd]3 [=E_d] [F=d]2 [Ge]2 | [Ec]2 [Fd]2 [DB]2 [DF]2 | %3
 [EG]3 [FA] [FB]2 [Fc]2 | [Fd]2 cB c2 F2 | [Fd]3 [=E_d] [F=d]2 [Ge]2 | [Ec]2 [Fd]2 [DB]2 d2 | %7
 c3 c f2 cB | A2 [=EG]2 F2 F2 | F3 F A2 G2 | [DF][EG][DF][_D=E] [=DF]2 [DF]2 | %11
 [EG]3 [EG] [Gc]2 [GB]2 |[M:9/8] B3 A A2- A F2 |[M:4/4] [Fd]3 d f2 d2 | B2 [Gc]2 [^Fd]4 | %15
 d2 dd [Ee]2 d-[Gd] |[M:3/4] d3 c [DB]2 |[M:1/4] [Fd]2 |[M:4/4] z4 z2 [Ge]2 | d2 .f.d B2 [Fd]2 | %20
 [Fc]3 [Fc] [Bd]2 [B=e]2 |[M:3/4] [Af]2 z2 z2 |[M:1/4] E2 |[M:4/4] .[B,DB]2 b2 .c2 f'2 | %24
 d2 [Be]2 [Ff]2 [Ge]2 | d3 B c2 c2 |[M:3/4] [B,DB]2 z2 z2 |[M:1/4] E2 | %28
[M:4/4] .[B,DB]2 b2 .c2 f'2 | d2 [Be]2 [Ff]2 [Ge]2 | d3 B c2 c2 |[M:3/4] [B,DB]2 z2 z2 |] %32
V:2
 z4 z2 [B,,B,]2 | [B,,B,]3 [B,,B,] [B,,B,]2 [B,,B,]2 | [F,A,]2 [F,A,]2 [B,,B,]2 [B,,B,]2 | %3
 [E,B,]3 [E,C] [D,B,]2 [C,A,]2 | [B,,B,]2 [C,B,]2 [F,A,F]2 F,2 | %5
 [B,,B,]3 [B,,B,] [B,,B,]2 [B,,B,]2 | [F,A,]2 [F,A,]2 [B,,B,]2[K:treble] [B,F]2 | %7
 [B,C=E]3 [B,CE] [A,CF]2 [A,CF][B,DG] | [CF]2[K:bass] [C,B,]2 [F,A,]2 F,2 | %9
 [F,A,E]3 [F,A,E] [F,CE]2 [F,A,E]2 | [B,,B,]2 [B,,B,]2 [B,,B,]2 [B,,B,]2 | %11
 [E,B,]3 [E,B,] [=E,C]2 [E,C]2 |[M:9/8] [F,CF]3 [F,CF] [F,CF]2- [F,CF] F,2 | %13
[M:4/4] [B,,B,]3[K:treble] [B,F] [A,CF]2 [B,F]2 | [G,B,G]2[K:bass] [E,G,]2 [D,A,]4 | %15
 z4[K:bass] z2 _B,2 |[M:3/4] [F,A,F]3 [F,A,E] [B,,B,]2 |[M:1/4] [B,,B,]2 | %18
[M:4/4] [B,,B,]3 [B,,B,] [B,,B,]2 .[E,B,]2 | [G,B,F]2 z2 z2[K:bass] [B,,B,]2 | %20
 [C,A,]3 [C,A,] [C,C]2 [C,C]2 |[M:3/4] [F,C]2[K:treble] cA F2 |[M:1/4][K:bass] F, z | %23
[M:4/4] .B,,2[K:treble] B2 .[F,A,F]2 f2 | [B,F]2 [G,E]2[K:bass] [D,B,]2 [E,B,]2 | %25
 [F,B,F]3 [F,DF] [F,A,F]2 [F,A,E]2 |[M:3/4] B,,2[K:treble] df b2 |[M:1/4][K:bass] F, z | %28
[M:4/4] .B,,2[K:treble] B2 .[F,A,F]2 f2 | [B,F]2 [G,E]2[K:bass] [D,B,]2 [E,B,]2 | %30
 [F,B,F]3 [F,DF] [F,A,F]2 [F,A,E]2 |[M:3/4] B,,2[K:treble] df b2 |] %32
V:3
 x8 | x8 | x8 | x8 | z2 =E2 z4 | x8 | x8 | x8 | x8 | x8 | x8 | x8 |[M:9/8] x9 |[M:4/4] x8 | x8 | %15
 z4 z2 .F2 |[M:3/4] x6 |[M:1/4] x2 |[M:4/4] [Fd]3 [=E_d] [F=d]2 z G, | x8 | x8 |[M:3/4] x6 | %22
[M:1/4] [A,F] z |[M:4/4] x8 | x8 | x8 |[M:3/4] x6 |[M:1/4] [A,F] z |[M:4/4] x8 | x8 | x8 | %31
[M:3/4] x6 |] %32
V:4
 x8 | x8 | x8 | x8 | x8 | x8 | x6[K:treble] x2 | x8 | x2[K:bass] x6 | x8 | x8 | x8 |[M:9/8] x9 | %13
[M:4/4] x3[K:treble] x5 | x2[K:bass] x6 | [G,=B,F]2 [G,B,F][G,B,F][K:bass] [C,C]2 D,E, | %16
[M:3/4] x6 |[M:1/4] x2 |[M:4/4] x8 | x6[K:bass] x2 | x8 |[M:3/4] x2[K:treble] x4 | %22
[M:1/4][K:bass] x2 |[M:4/4] x2[K:treble] x6 | x4[K:bass] x4 | x8 |[M:3/4] x2[K:treble] x4 | %27
[M:1/4][K:bass] x2 |[M:4/4] x2[K:treble] x6 | x4[K:bass] x4 | x8 |[M:3/4] x2[K:treble] x4 |] %32

